X: 456
T:The Reel with the Birl
M:4/4
L:1/8
S:Ken Ricketts, Norwich
R:Reel
N:Posted to the woodenflute mailing list November 2001
Z:Steve Mansfield 1998
K:G
E2 BE dEBE | (3EEE BE AFDA | E2 BE dEBc | dedB ABAF |
E2 BE dEBE | (3EEE BE AFDF | E2 BE dEBc | dedB A2 FA ||
Beed e2 de | fedB d2 ef | ~g2 gf g3 a | fa a2 afed |
fb ~b2 bafd | fa ~a2 afed | B2 BA BAFA | dedB ABAF ||
<end>
<start>
